settings-icons/logout.svg

<svg viewBox="0 0 24 24"><path fill="currentColor" d="M10.418 13L12.708 15.294L11.292 16.706L6.586 11.991L11.294 7.292L12.707 8.708L10.41 11H21.949C21.446 5.955 17.177 2 12 2C6.486 2 2 6.487 2 12C2 17.513 6.486 22 12 22C17.177 22 21.446 18.046 21.949 13H10.418Z"></path></svg>

<svg xmlns="http://www.w3.org/2000/svg" xml:space="preserve" viewBox="0 0 24 24"><path d="m10.4 13 2.3 2.3-1.4 1.4L6.6 12l4.7-4.7 1.4 1.4-2.3 2.3h11.5c-.5-5-4.8-9-9.9-9C6.5 2 2 6.5 2 12s4.5 10 10 10c5.2 0 9.4-4 9.9-9H10.4z"/></svg>
